; generated by Slic3r 1.2.9 on 2019-12-21 at 18:04:39

; external perimeters extrusion width = 0.50mm
; perimeters extrusion width = 0.85mm
; infill extrusion width = 1.02mm
; solid infill extrusion width = 0.85mm
; top infill extrusion width = 0.85mm

M107
M104 S200 ; set temperature
G28 ; home all axes
G1 Z5 F5000 ; lift nozzle

M109 S200 ; wait for temperature to be reached
G21 ; set units to millimeters
G90 ; use absolute coordinates
M82 ; use absolute distances for extrusion
G92 E0
G1 Z0.350 F7800.000
G1 E-2.00000 F2400.00000
G92 E0
G1 X92.571 Y82.163 F7800.000
G1 E2.00000 F2400.00000
G1 X94.325 Y80.685 E2.07096 F1800.000
G1 X96.477 Y79.893 E2.14192
G1 X97.654 Y79.788 E2.17848
G1 X102.374 Y79.788 E2.32451
G1 X104.632 Y80.185 E2.39548
G1 X106.620 Y81.328 E2.46644 F1800.000
G1 X108.100 Y83.081 E2.53740
G1 X108.893 Y85.233 E2.60836
G1 X108.998 Y86.412 E2.64501
G1 X108.998 Y97.412 E2.98537
G1 X108.601 Y99.671 E3.05633
G1 X107.458 Y101.659 E3.12729
G1 X105.705 Y103.139 E3.19826
G1 X103.557 Y103.931 E3.26911
G1 X103.274 Y103.982 E3.27799
G1 X102.130 Y104.140 E3.31374
G1 X101.677 Y104.185 E3.32781
G1 X100.649 Y104.249 E3.35968
G1 X99.600 Y104.254 E3.39216
G1 X98.020 Y104.158 E3.44111
G1 X97.049 Y104.032 E3.47142
G1 X96.373 Y103.913 E3.49265
G1 X94.233 Y103.089 E3.56361
G1 X92.502 Y101.584 E3.63457
G1 X91.388 Y99.580 E3.70554
G1 X91.024 Y97.409 E3.77363
G1 X91.029 Y86.409 E4.11399
G1 X91.427 Y84.151 E4.18495
G1 X92.534 Y82.228 E4.25359
G1 E2.25359 F2400.00000
G92 E0
G1 X100.774 Y96.002 F7800.000
G1 E2.00000 F2400.00000
G1 X100.350 Y96.029 E2.01313 F1800.000
G1 X99.651 Y96.029 E2.03476
G1 X99.249 Y96.003 E2.04723
G1 X99.253 Y88.012 E2.29448
G1 X100.774 Y88.012 E2.34154
G1 X100.774 Y95.927 E2.58642
G1 X101.399 Y96.567 F7800.000
G1 X101.143 Y96.604 E2.59442 F1800.000
G1 X100.370 Y96.654 E2.61836
G1 X99.631 Y96.654 E2.64124
G1 X98.624 Y96.574 E2.67250
G1 X98.628 Y87.387 E2.95674
G1 X101.399 Y87.387 E3.04246
G1 X101.399 Y96.492 E3.32418
G1 X102.024 Y97.109 F7800.000
G1 X101.207 Y97.226 E3.34970 F1800.000
G1 X100.391 Y97.279 E3.37502
G1 X99.611 Y97.279 E3.39914
G1 X98.792 Y97.226 E3.42453
G1 X97.999 Y97.122 E3.44929
G1 X98.004 Y86.762 E3.76983
G1 X102.024 Y86.762 E3.89422
G1 X102.024 Y97.034 E4.21203
G1 X101.569 Y96.901 F7800.000
G1 X100.011 Y95.717 F7800.000
G1 X100.013 Y88.325 E4.69695 F1800.000
G1 Z0.550 F7800.000
G1 X102.103 Y96.083 F7800.000
G1 X101.774 Y96.148 E4.70461 F900.000
G1 X101.043 Y96.242 E4.72144
G1 X100.318 Y96.288 E4.73803
G1 X99.684 Y96.288 E4.75251
G1 X98.958 Y96.242 E4.76910
G1 X98.228 Y96.148 E4.78593
G1 X97.911 Y96.086 E4.79329
G1 X97.911 Y88.102 E4.97561
G1 X102.095 Y88.102 E5.07115
G1 X102.103 Y96.008 E5.25170
G1 X102.911 Y96.733 F7800.000
G1 X102.624 Y96.804 E5.25992 F900.000
G1 X101.903 Y96.945 E5.27668 F900.000
G1 X101.120 Y97.046 E5.29472
G1 X100.343 Y97.095 E5.31250
G1 X99.658 Y97.095 E5.32813
G1 X98.881 Y97.046 E5.34591
G1 X98.098 Y96.945 E5.36394
G1 X97.404 Y96.809 E5.38010
G1 X97.104 Y96.737 E5.38865 F900.000
G1 X97.104 Y87.295 E5.65093
G1 X97.404 Y87.295 E5.65925
G1 X102.624 Y87.295 E5.77845 F900.000
G1 X102.901 Y87.295 E5.78617 F900.000
G1 X102.911 Y96.658 E6.04626
G1 X103.543 Y97.220 F7800.000
G1 X102.624 Y97.448 E6.07259 F900.000
G1 X102.004 Y97.569 E6.08075 F900.000
G1 X101.180 Y97.676 E6.09149
G1 X100.363 Y97.727 E6.10209
G1 X99.639 Y97.727 E6.11145
G1 X98.821 Y97.676 E6.12205
G1 X97.997 Y97.569 E6.13279
G1 X97.394 Y97.451 E6.14074
G1 X96.472 Y97.224 E6.16710 F900.000
G1 X96.472 Y86.662 E6.46047
G1 X97.404 Y86.662 E6.48634
G1 X102.624 Y86.662 E6.55385 F900.000
G1 X103.533 Y86.662 E6.57911 F900.000
G1 X103.543 Y97.145 E6.87029
G1 E4.87029 F2400.00000
G92 E0
G1 X101.222 Y95.696 F7800.000
G1 E2.00000 F2400.00000
G1 X101.608 Y95.311 E2.01300 F1200.000
G1 X101.606 Y94.120 E2.04138
G1 X99.934 Y95.793 E2.09777
G1 X98.793 Y95.743 E2.12501
G1 X101.605 Y92.930 E2.21985
G1 X101.604 Y91.739 E2.24823
G1 X98.406 Y94.937 E2.35606
G1 X98.406 Y93.746 E2.38447
G1 X101.603 Y90.549 E2.49226
G1 X101.602 Y89.358 E2.52064
G1 X98.406 Y92.554 E2.62839
G1 X98.406 Y91.362 E2.65680
G1 X101.172 Y88.596 E2.75006
G1 X99.980 Y88.596 E2.77847
G1 X98.406 Y90.171 E2.83155
G1 X98.406 Y88.979 E2.85996
G1 X98.789 Y88.596 E2.87286
G1 Z0.750 F7800.000
G1 X102.843 Y96.165 F7800.000
G1 X102.477 Y96.260 E2.88149 F900.000
G1 X101.838 Y96.385 E2.89637
G1 X101.011 Y96.497 E2.91541
G1 X100.296 Y96.541 E2.93178
G1 X99.705 Y96.541 E2.94527
G1 X98.985 Y96.497 E2.96175
G1 X98.260 Y96.403 E2.97843
G1 X97.523 Y96.260 E2.99557
G1 X97.145 Y96.161 E3.00450
G1 X97.154 Y88.102 E3.18855
G1 X102.843 Y88.102 E3.31847
G1 X102.843 Y96.090 E3.50088
G1 X103.650 Y96.776 F7800.000
G1 X102.657 Y97.047 E3.52440 F900.000
G1 X101.970 Y97.182 E3.54038
G1 X101.090 Y97.301 E3.56065
G1 X100.321 Y97.348 E3.57825
G1 X99.681 Y97.348 E3.59287
G1 X98.909 Y97.300 E3.61053
G1 X98.132 Y97.201 E3.62842
G1 X97.344 Y97.047 E3.64674
G1 X96.338 Y96.772 E3.67057
G1 X96.347 Y87.295 E3.88699
G1 X103.650 Y87.295 E4.05375
G1 X103.650 Y96.701 E4.26855
G1 X104.033 Y97.316 F7800.000
G1 X103.634 Y97.446 E4.27397 F900.000
G1 X102.797 Y97.664 E4.28515
G1 X102.073 Y97.806 E4.29470
G1 X101.152 Y97.930 E4.30672
G1 X100.340 Y97.980 E4.31724
G1 X99.661 Y97.980 E4.32601
G1 X98.849 Y97.930 E4.33654
G1 X98.031 Y97.825 E4.34721
G1 X97.204 Y97.664 E4.35810
G1 X96.367 Y97.446 E4.36928
G1 X95.970 Y97.317 E4.37469
G1 X95.705 Y97.231 E4.38242 F900.000
G1 X95.716 Y86.662 E4.67599
G1 X95.972 Y86.662 E4.68310
G1 X104.033 Y86.662 E4.78735 F900.000
G1 X104.282 Y86.662 E4.79428 F900.000
G1 X104.282 Y97.235 E5.08797
G1 X104.104 Y97.293 E5.09318
G1 E3.09318 F2400.00000
G92 E0
G1 X98.028 Y95.818 F7800.000
G1 E2.00000 F2400.00000
G1 X97.641 Y95.430 E2.01360 F1200.000
G1 X97.642 Y94.191 E2.04432
G1 X99.470 Y96.020 E2.10846
G1 X100.720 Y96.029 E2.13945
G1 X97.643 Y92.953 E2.24737
G1 X97.645 Y91.714 E2.27810
G1 X101.838 Y95.908 E2.42520
G1 X102.348 Y95.178 E2.44729
G1 X97.646 Y90.476 E2.61225
G1 X97.647 Y89.237 E2.64297
G1 X102.348 Y93.938 E2.80789
G1 X102.348 Y92.698 E2.83865
G1 X98.246 Y88.596 E2.98254
G1 X99.486 Y88.596 E3.01330
G1 X102.348 Y91.459 E3.11370
G1 X102.348 Y90.219 E3.14445
G1 X100.726 Y88.596 E3.20136
G1 X101.966 Y88.596 E3.23212
G1 X102.348 Y88.979 E3.24553
M106 S242.25
G1 Z0.950 F7800.000
G1 X103.481 Y96.227 F7800.000
G1 X103.185 Y96.323 E3.25265 F900.000
G1 X102.439 Y96.517 E3.27025
G1 X101.705 Y96.660 E3.28732
G1 X101.140 Y96.734 E3.30033
G1 X100.267 Y96.794 E3.32031
G1 X99.727 Y96.794 E3.33265
G1 X99.018 Y96.751 E3.34886
G1 X98.159 Y96.634 E3.36868
G1 X97.564 Y96.518 E3.38251
G1 X96.817 Y96.323 E3.40014
G1 X96.509 Y96.223 E3.40755
G1 X96.509 Y88.102 E3.59300
G1 X103.478 Y88.102 E3.75214
G1 X103.481 Y96.152 E3.93597
G1 X104.288 Y96.813 F7800.000
G1 X103.411 Y97.098 E3.95703 F900.000
G1 X102.618 Y97.305 E3.97576
G1 X101.835 Y97.457 E3.99397
G1 X101.220 Y97.538 E4.00812
G1 X100.295 Y97.601 E4.02931
G1 X99.703 Y97.601 E4.04283
G1 X98.940 Y97.555 E4.06028
G1 X98.026 Y97.431 E4.08133
G1 X97.384 Y97.305 E4.09627
G1 X96.590 Y97.098 E4.11502
G1 X95.701 Y96.809 E4.13635
G1 X95.701 Y87.295 E4.35362
G1 X104.284 Y87.295 E4.54962
G1 X104.288 Y96.738 E4.76527
G1 X104.782 Y97.295 F7800.000
G1 X104.431 Y97.431 E4.77014 F1800.000
G1 X103.589 Y97.705 E4.78159
G1 X102.758 Y97.921 E4.79270
G1 X101.937 Y98.081 E4.80352
G1 X101.283 Y98.167 E4.81204
G1 X100.316 Y98.233 E4.82457
G1 X99.684 Y98.233 E4.83275
G1 X98.878 Y98.185 E4.84319
G1 X97.923 Y98.055 E4.85566
G1 X97.244 Y97.921 E4.86461
G1 X96.413 Y97.705 E4.87572
G1 X95.569 Y97.431 E4.88718
G1 X95.205 Y97.292 E4.89223
M106 S255
G1 X95.069 Y97.240 E4.89626 F3600.000
G1 X95.069 Y86.662 E5.19008
G1 X95.216 Y86.662 E5.19416
M106 S242.25
G1 X104.782 Y86.662 E5.31788 F1800.000
M106 S255
G1 X104.916 Y86.662 E5.32160 F3600.000
G1 X104.921 Y97.241 E5.61546
G1 X104.852 Y97.268 E5.61750
M106 S242.25
G1 E3.61750 F2400.00000
G92 E0
G1 X102.596 Y95.915 F7800.000
G1 E2.00000 F2400.00000
G1 X102.986 Y95.524 E2.01384 F1200.000
G1 X102.986 Y94.272 E2.04523
G1 X101.032 Y96.225 E2.11446
G1 X99.706 Y96.299 E2.14776
G1 X102.985 Y93.020 E2.26400
G1 X102.985 Y91.767 E2.29539
G1 X98.543 Y96.209 E2.45283
G1 X97.477 Y96.022 E2.47996
G1 X102.984 Y90.515 E2.67519
G1 X102.983 Y89.263 E2.70657
G1 X97.003 Y95.243 E2.91856
G1 X97.003 Y93.990 E2.94996
G1 X102.397 Y88.596 E3.14115
G1 X101.144 Y88.596 E3.17256
G1 X97.003 Y92.737 E3.31934
G1 X97.003 Y91.485 E3.35074
G1 X99.891 Y88.596 E3.45312
G1 X98.639 Y88.596 E3.48452
G1 X97.003 Y90.232 E3.54249
G1 X97.003 Y88.979 E3.57389
G1 X97.386 Y88.596 E3.58745
M106 S239.7
G1 Z1.150 F7800.000
G1 X104.042 Y96.288 F7800.000
G1 X103.139 Y96.582 E3.60913 F900.000
G1 X102.400 Y96.775 E3.62658
G1 X101.672 Y96.916 E3.64351
G1 X101.152 Y96.984 E3.65549
G1 X100.244 Y97.047 E3.67627
G1 X99.748 Y97.047 E3.68758
G1 X99.037 Y97.005 E3.70385
G1 X98.326 Y96.915 E3.72023
G1 X97.602 Y96.775 E3.73707
G1 X96.862 Y96.582 E3.75452
G1 X95.962 Y96.289 E3.77615
G1 X95.962 Y88.102 E3.96312
G1 X104.042 Y88.102 E4.14764
G1 X104.042 Y96.213 E4.33288
G1 X104.849 Y96.831 F7800.000
G1 X104.168 Y97.096 E4.34957 F900.000
G1 X103.366 Y97.357 E4.36882
G1 X102.578 Y97.562 E4.38741
G1 X101.801 Y97.713 E4.40548
G1 X101.232 Y97.788 E4.41860
G1 X100.272 Y97.854 E4.44057
G1 X99.725 Y97.854 E4.45306
G1 X98.963 Y97.809 E4.47049
G1 X98.198 Y97.713 E4.48810
G1 X97.423 Y97.562 E4.50613
G1 X96.635 Y97.357 E4.52471
G1 X95.834 Y97.096 E4.54397
G1 X95.154 Y96.832 E4.56061
G1 X95.154 Y87.295 E4.77841
G1 X104.849 Y87.295 E4.99979
G1 X104.849 Y96.756 E5.21586
G1 X105.416 Y97.279 F7800.000
G1 X104.380 Y97.692 E5.23029 F1800.000
G1 X103.544 Y97.964 E5.24166
G1 X102.718 Y98.179 E5.25269
G1 X101.903 Y98.337 E5.26344
G1 X101.295 Y98.417 E5.27137
G1 X100.294 Y98.486 E5.28435
G1 X99.706 Y98.486 E5.29194
G1 X98.905 Y98.439 E5.30232
G1 X98.098 Y98.337 E5.31284
G1 X97.283 Y98.179 E5.32358
G1 X96.458 Y97.964 E5.33461
G1 X95.621 Y97.692 E5.34598
G1 X94.569 Y97.271 E5.36063
M106 S255
G1 X94.522 Y97.250 E5.36206 F3600.000
G1 X94.522 Y86.662 E5.65617
G1 X94.569 Y86.662 E5.65748
M106 S239.7
G1 X105.416 Y86.662 E5.79776 F1800.000
M106 S255
G1 X105.481 Y86.662 E5.79956 F3600.000
G1 X105.481 Y97.246 E6.09356
M106 S239.7
G1 E4.09356 F2400.00000
G92 E0
G1 X103.547 Y88.979 F7800.000
G1 E2.00000 F2400.00000
G1 X103.165 Y88.596 E2.01236 F1200.000
G1 X102.022 Y88.596 E2.03849
G1 X103.547 Y90.122 E2.08779
G1 X103.547 Y91.264 E2.11391
G1 X100.880 Y88.596 E2.20016
G1 X99.737 Y88.596 E2.22628
G1 X103.547 Y92.407 E2.34947
G1 X103.547 Y93.549 E2.37559
G1 X98.594 Y88.596 E2.53573
G1 X97.452 Y88.596 E2.56185
G1 X103.547 Y94.692 E2.75892
G1 X103.547 Y95.835 E2.78504
G1 X96.456 Y88.744 E3.01430
G1 X96.456 Y89.886 E3.04042
G1 X102.775 Y96.205 E3.24469
G1 X101.837 Y96.410 E3.26663
G1 X96.456 Y91.029 E3.44059
G1 X96.456 Y92.172 E3.46671
G1 X100.808 Y96.523 E3.60740
G1 X99.679 Y96.537 E3.63322
G1 X96.456 Y93.314 E3.73740
G1 X96.456 Y94.457 E3.76353
G1 X98.386 Y96.386 E3.82591
G1 X96.850 Y95.993 E3.86215
G1 X96.456 Y95.600 E3.87487
M106 S255
G1 Z1.350 F7800.000
G1 X104.549 Y96.323 F7800.000
G1 X103.846 Y96.596 E3.89210 F810.832
G1 X103.094 Y96.841 E3.91016
G1 X102.361 Y97.032 E3.92746
G1 X101.643 Y97.171 E3.94415
G1 X100.938 Y97.260 E3.96039
G1 X100.231 Y97.300 E3.97654
G1 X99.770 Y97.300 E3.98707
G1 X99.064 Y97.260 E4.00323
G1 X98.358 Y97.171 E4.01946
G1 X97.641 Y97.032 E4.03615
G1 X96.908 Y96.841 E4.05345
G1 X96.157 Y96.596 E4.07149
G1 X95.453 Y96.323 E4.08873
G1 X95.458 Y88.102 E4.27647
G1 X104.548 Y88.102 E4.48404
G1 X104.549 Y96.248 E4.67007
G1 X105.356 Y96.843 F7800.000
G1 X104.850 Y97.072 E4.68275 F3243.328
G1 X104.117 Y97.357 E4.70071
G1 X103.321 Y97.616 E4.71984
G1 X102.539 Y97.820 E4.73828
G1 X101.770 Y97.969 E4.75617
G1 X101.011 Y98.064 E4.77364
G1 X100.254 Y98.107 E4.79095
G1 X99.747 Y98.107 E4.80253
G1 X98.990 Y98.064 E4.81983
G1 X98.231 Y97.969 E4.83731
G1 X97.462 Y97.820 E4.85520
G1 X96.681 Y97.616 E4.87364
G1 X95.885 Y97.357 E4.89275
G1 X95.075 Y97.042 E4.91260
G1 X94.646 Y96.846 E4.92338
G1 X94.652 Y87.295 E5.14148
G1 X105.355 Y87.295 E5.38590
G1 X105.356 Y96.768 E5.60224
G1 X105.981 Y97.254 F7800.000
G1 X105.095 Y97.655 E5.61482 F1621.664
G1 X104.329 Y97.952 E5.62544
G1 X103.498 Y98.223 E5.63674
G1 X102.679 Y98.436 E5.64769
G1 X101.870 Y98.593 E5.65836
G1 X101.068 Y98.694 E5.66880
G1 X100.272 Y98.739 E5.67911
G1 X99.729 Y98.739 E5.68614
G1 X98.933 Y98.694 E5.69645
G1 X98.132 Y98.593 E5.70689
G1 X97.322 Y98.436 E5.71755
G1 X96.503 Y98.223 E5.72850
G1 X95.672 Y97.952 E5.73980
G1 X94.829 Y97.624 E5.75151
G1 X94.022 Y97.256 E5.76297
M106 S255
G1 X94.022 Y86.662 E6.05724 F3600.000
M106 S255
G1 X105.981 Y86.662 E6.21190 F1621.664
M106 S255
G1 X105.988 Y97.184 E6.50416 F3600.000
M106 S255
G1 E4.50416 F2400.00000
G92 E0
G1 X103.775 Y91.544 F7800.000
G1 E2.00000 F2400.00000
G1 X103.267 Y91.407 E2.01463 F4324.437
G1 X100.060 Y94.614 E2.14059
G1 X96.228 Y93.587 E2.25079
G1 X96.227 Y94.603 E2.27901
G1 X99.806 Y95.562 E2.38193
G1 X100.064 Y96.527 E2.40966
G1 X100.867 Y96.489 E2.43199
G1 X101.521 Y96.407 E2.45029
G1 X102.189 Y96.278 E2.46920
G1 X102.876 Y96.099 E2.48891
G1 X103.776 Y95.794 E2.51529
G1 X103.775 Y91.544 E2.63335
G1 X103.775 Y88.875 F7800.000
G1 X103.096 Y88.875 E2.65220 F4324.437
G1 X103.521 Y90.459 E2.69776
G1 X103.775 Y90.527 E2.70508
G1 X103.775 Y88.875 E2.75098
M106 S239.7
G1 Z1.550 F7800.000
G1 X105.002 Y96.358 F7800.000
G1 X104.558 Y96.559 E2.76211 F900.000
G1 X103.793 Y96.857 E2.78086
G1 X103.048 Y97.100 E2.79875
G1 X102.321 Y97.290 E2.81590
G1 X101.610 Y97.427 E2.83244
G1 X100.911 Y97.514 E2.84853
G1 X100.210 Y97.553 E2.86457
G1 X99.792 Y97.553 E2.87412
G1 X99.090 Y97.514 E2.89017
G1 X98.391 Y97.427 E2.90625
G1 X97.680 Y97.290 E2.92279
G1 X96.953 Y97.100 E2.93994
G1 X96.208 Y96.857 E2.95783
G1 X95.442 Y96.558 E2.97661
G1 X94.990 Y96.355 E2.98794
G1 X94.990 Y88.102 E3.17641
G1 X105.001 Y88.102 E3.40502
G1 X105.002 Y96.283 E3.59185
G1 X105.810 Y96.879 F7800.000
G1 X104.871 Y97.303 E3.61537 F3600.000
G1 X104.065 Y97.617 E3.63512
G1 X103.275 Y97.875 E3.65409
G1 X102.500 Y98.077 E3.67239
G1 X101.737 Y98.225 E3.69014
G1 X100.984 Y98.318 E3.70747
G1 X100.232 Y98.360 E3.72466
G1 X99.769 Y98.360 E3.73523
G1 X99.018 Y98.318 E3.75241
G1 X98.265 Y98.225 E3.76975
G1 X97.502 Y98.077 E3.78749
G1 X96.726 Y97.875 E3.80579
G1 X95.936 Y97.618 E3.82476
G1 X95.130 Y97.303 E3.84453
G1 X94.183 Y96.868 E3.86833
G1 X94.183 Y87.295 E4.08694
G1 X105.808 Y87.295 E4.35241
G1 X105.810 Y96.804 E4.56957
G1 X106.442 Y97.259 F7800.000
G1 X105.969 Y97.501 E4.57644 F1800.000
G1 X105.116 Y97.886 E4.58854
G1 X104.278 Y98.213 E4.60017
G1 X103.453 Y98.482 E4.61140
G1 X102.640 Y98.694 E4.62227
G1 X101.836 Y98.849 E4.63286
G1 X101.040 Y98.948 E4.64322
G1 X100.250 Y98.992 E4.65346
G1 X99.752 Y98.992 E4.65990
G1 X98.961 Y98.948 E4.67014
G1 X98.166 Y98.849 E4.68051
G1 X97.362 Y98.694 E4.69110
G1 X96.548 Y98.482 E4.70197
G1 X95.723 Y98.213 E4.71319
G1 X94.885 Y97.886 E4.72483
G1 X94.088 Y97.527 E4.73613
G1 X93.551 Y97.258 E4.74391
G1 X93.551 Y86.662 E4.88094
G1 X106.440 Y86.662 E5.04763
G1 X106.442 Y97.184 E5.18371
G1 X105.953 Y97.156 F7800.000
G1 E3.18371 F2400.00000
G92 E0
G1 X103.977 Y88.979 F7800.000
G1 E2.00000 F2400.00000
G1 X103.595 Y88.596 E2.01268 F1200.000
G1 X102.423 Y88.596 E2.04015
G1 X103.973 Y90.147 E2.09156
G1 X103.940 Y91.285 E2.11826
G1 X101.251 Y88.596 E2.20742
G1 X100.079 Y88.596 E2.23489
G1 X104.507 Y93.024 E2.38170
G1 X104.507 Y94.196 E2.40918
G1 X98.907 Y88.596 E2.59484
G1 X97.736 Y88.596 E2.62231
G1 X104.507 Y95.368 E2.84684
G1 X104.192 Y96.225 E2.86824
G1 X96.564 Y88.596 E3.12116
G1 X96.064 Y89.268 E3.14079
G1 X103.330 Y96.535 E3.38171
G1 X102.416 Y96.793 E3.40398
G1 X96.018 Y90.394 E3.61613
G1 X95.783 Y91.331 E3.63878
G1 X101.423 Y96.972 E3.82579
G1 X100.338 Y97.058 E3.85132
G1 X95.485 Y92.205 E4.01224
G1 X95.485 Y93.376 E4.03972
G1 X99.102 Y96.994 E4.15967
G1 X97.659 Y96.723 E4.19411
G1 X95.485 Y94.548 E4.26620
G1 X95.485 Y95.720 E4.29368
G1 X95.885 Y96.121 E4.30696
G1 Z1.750 F7800.000
G1 X105.436 Y96.387 F7800.000
G1 X104.500 Y96.821 E4.33054 F900.000
G1 X103.741 Y97.118 E4.34915
G1 X103.003 Y97.360 E4.36689
