; generated by Slic3r 1.2.9 on 2019-12-21 at 18:41:29

; external perimeters extrusion width = 0.50mm
; perimeters extrusion width = 0.85mm
; infill extrusion width = 1.98mm
; solid infill extrusion width = 0.85mm
; top infill extrusion width = 0.85mm

M107
M104 S200 ; set temperature
G28 ; home all axes
G1 Z5 F5000 ; lift nozzle

M109 S200 ; wait for temperature to be reached
G21 ; set units to millimeters
G90 ; use absolute coordinates
M82 ; use absolute distances for extrusion
G92 E0
G1 Z0.350 F7800.000
G1 E-2.00000 F2400.00000
G92 E0
G1 X89.915 Y90.753 F7800.000
G1 E2.00000 F2400.00000
G1 X91.668 Y89.274 E2.07096 F1800.000
G1 X93.820 Y88.481 E2.14192
G1 X95.000 Y88.375 E2.17858
G1 X105.000 Y88.375 E2.48799
G1 X107.259 Y88.772 E2.55895
G1 X109.247 Y89.915 E2.62991 F1800.000
G1 X110.726 Y91.668 E2.70088
G1 X111.519 Y93.820 E2.77184
G1 X111.625 Y95.000 E2.80849
G1 X111.625 Y105.000 E3.11790
G1 X111.228 Y107.259 E3.18886
G1 X110.085 Y109.247 E3.25983
G1 X108.332 Y110.726 E3.33079
G1 X106.180 Y111.519 E3.40175
G1 X105.000 Y111.625 E3.43840
G1 X95.000 Y111.625 E3.74782
G1 X92.741 Y111.228 E3.81878
G1 X90.753 Y110.085 E3.88974
G1 X89.274 Y108.332 E3.96070
G1 X88.481 Y106.180 E4.03167
G1 X88.375 Y105.000 E4.06832
G1 X88.375 Y95.000 E4.37773
G1 X88.772 Y92.741 E4.44869
G1 X89.878 Y90.818 E4.51733
G1 E2.51733 F2400.00000
G92 E0
G1 X103.400 Y103.400 F7800.000
G1 E2.00000 F2400.00000
G1 X96.600 Y103.400 E2.21041 F1800.000
G1 X96.600 Y96.600 E2.42083
G1 X103.400 Y96.600 E2.63124
G1 X103.400 Y103.325 E2.83934
G1 X104.025 Y104.025 F7800.000
G1 X95.975 Y104.025 E3.08842 F1800.000
G1 X95.975 Y95.975 E3.33751
G1 X104.025 Y95.975 E3.58659
G1 X104.025 Y103.950 E3.83336
G1 X104.650 Y104.650 F7800.000
G1 X95.350 Y104.650 E4.12111 F1800.000
G1 X95.350 Y95.350 E4.40886
G1 X104.650 Y95.350 E4.69662
G1 X104.650 Y104.575 E4.98205
G1 X104.217 Y104.400 F7800.000
G1 X103.022 Y97.283 F7800.000
G1 X102.717 Y96.978 E4.99650 F1800.000
G1 X101.760 Y96.978 E5.02852
G1 X103.022 Y98.240 E5.08826
G1 X103.022 Y99.196 E5.12028
G1 X100.804 Y96.978 E5.22531
G1 X99.847 Y96.978 E5.25733
G1 X103.022 Y100.153 E5.40764
G1 X103.022 Y101.109 E5.43967
G1 X98.891 Y96.978 E5.63527
G1 X97.935 Y96.978 E5.66729
G1 X103.022 Y102.065 E5.90818
G1 X103.002 Y103.002 E5.93954
G1 X96.998 Y96.998 E6.22382
G1 X96.978 Y97.935 E6.25518
G1 X102.065 Y103.022 E6.49607
G1 X101.109 Y103.022 E6.52809
G1 X96.978 Y98.891 E6.72369
G1 X96.978 Y99.847 E6.75571
G1 X100.153 Y103.022 E6.90602
G1 X99.196 Y103.022 E6.93805
G1 X96.978 Y100.804 E7.04307
G1 X96.978 Y101.760 E7.07509
G1 X98.240 Y103.022 E7.13483
G1 X97.283 Y103.022 E7.16685
G1 X96.978 Y102.717 E7.18130
G1 Z0.450 F7800.000
G1 X103.268 Y103.268 F7800.000
G1 X96.732 Y103.268 E7.25791 F900.000
G1 X96.732 Y96.732 E7.33452
G1 X103.268 Y96.732 E7.41113
G1 X103.268 Y103.193 E7.48686
G1 X104.096 Y104.096 F7800.000
G1 X95.904 Y104.096 E7.58289 F900.000
G1 X95.904 Y95.904 E7.67893
G1 X104.096 Y95.904 E7.77496
G1 X104.096 Y104.021 E7.87011
G1 X104.750 Y104.750 F7800.000
G1 X95.250 Y104.750 E7.93443 F900.000
G1 X95.250 Y95.250 E7.99874
G1 X104.750 Y95.250 E8.06306
G1 X104.750 Y104.675 E8.12686
G1 X104.317 Y104.500 F7800.000
G1 X102.368 Y102.759 F7800.000
G1 X102.759 Y102.368 E8.13396 F1200.000
G1 X102.759 Y101.086 E8.15040
G1 X101.086 Y102.759 E8.18075
G1 X99.804 Y102.759 E8.19718
G1 X102.759 Y99.804 E8.25077
G1 X102.759 Y98.522 E8.26721
G1 X98.522 Y102.759 E8.34405
G1 X97.261 Y102.739 E8.36023
G1 X102.739 Y97.261 E8.45959
G1 X101.478 Y97.241 E8.47577
G1 X97.241 Y101.478 E8.55260
G1 X97.241 Y100.196 E8.56904
G1 X100.196 Y97.241 E8.62263
G1 X98.914 Y97.241 E8.63907
G1 X97.241 Y98.914 E8.66941
G1 X97.241 Y97.632 E8.68585
G1 X97.632 Y97.241 E8.69295
G1 Z0.550 F7800.000
G1 X103.268 Y103.268 F7800.000
G1 X96.732 Y103.268 E8.76956 F900.000
G1 X96.732 Y96.732 E8.84617
G1 X103.268 Y96.732 E8.92278
G1 X103.268 Y103.193 E8.99851
G1 X104.096 Y104.096 F7800.000
G1 X95.904 Y104.096 E9.09454 F900.000
G1 X95.904 Y95.904 E9.19057
G1 X104.096 Y95.904 E9.28661
G1 X104.096 Y104.021 E9.38176
G1 X104.750 Y104.750 F7800.000
G1 X95.250 Y104.750 E9.44608 F900.000
G1 X95.250 Y95.250 E9.51039
G1 X104.750 Y95.250 E9.57471
G1 X104.750 Y104.675 E9.63851
G1 X104.317 Y104.500 F7800.000
G1 X102.759 Y97.632 F7800.000
G1 X102.368 Y97.241 E9.64561 F1200.000
G1 X101.086 Y97.241 E9.66205
G1 X102.759 Y98.914 E9.69239
G1 X102.759 Y100.196 E9.70883
G1 X99.804 Y97.241 E9.76242
G1 X98.522 Y97.241 E9.77886
G1 X102.759 Y101.478 E9.85570
G1 X102.739 Y102.739 E9.87188
G1 X97.261 Y97.261 E9.97123
G1 X97.241 Y98.522 E9.98742
G1 X101.478 Y102.759 E10.06425
G1 X100.196 Y102.759 E10.08069
G1 X97.241 Y99.804 E10.13428
G1 X97.241 Y101.086 E10.15072
G1 X98.914 Y102.759 E10.18106
G1 X97.632 Y102.759 E10.19750
G1 X97.241 Y102.368 E10.20460
M106 S242.25
G1 Z0.650 F7800.000
G1 X103.268 Y103.268 F7800.000
G1 X96.732 Y103.268 E10.28121 F900.000
G1 X96.732 Y96.732 E10.35782
G1 X103.268 Y96.732 E10.43443
G1 X103.268 Y103.193 E10.51016
G1 X104.096 Y104.096 F7800.000
G1 X95.904 Y104.096 E10.60619 F900.000
G1 X95.904 Y95.904 E10.70222
G1 X104.096 Y95.904 E10.79826
G1 X104.096 Y104.021 E10.89341
G1 X104.750 Y104.750 F7800.000
G1 X95.250 Y104.750 E10.95772 F900.000
G1 X95.250 Y95.250 E11.02204
G1 X104.750 Y95.250 E11.08635
G1 X104.750 Y104.675 E11.15016
G1 X104.317 Y104.500 F7800.000
G1 X102.368 Y102.759 F7800.000
G1 X102.759 Y102.368 E11.15726 F1200.000
G1 X102.759 Y101.086 E11.17370
G1 X101.086 Y102.759 E11.20404
G1 X99.804 Y102.759 E11.22048
G1 X102.759 Y99.804 E11.27407
G1 X102.759 Y98.522 E11.29051
G1 X98.522 Y102.759 E11.36734
G1 X97.261 Y102.739 E11.38352
G1 X102.739 Y97.261 E11.48288
G1 X101.478 Y97.241 E11.49906
G1 X97.241 Y101.478 E11.57590
G1 X97.241 Y100.196 E11.59233
G1 X100.196 Y97.241 E11.64593
G1 X98.914 Y97.241 E11.66236
G1 X97.241 Y98.914 E11.69271
G1 X97.241 Y97.632 E11.70914
G1 X97.632 Y97.241 E11.71624
G1 Z0.750 F7800.000
G1 X103.268 Y103.268 F7800.000
G1 X96.732 Y103.268 E11.79285 F900.000
G1 X96.732 Y96.732 E11.86946
G1 X103.268 Y96.732 E11.94607
G1 X103.268 Y103.193 E12.02180
G1 X104.096 Y104.096 F7800.000
G1 X95.904 Y104.096 E12.11784 F900.000
G1 X95.904 Y95.904 E12.21387
G1 X104.096 Y95.904 E12.30990
G1 X104.096 Y104.021 E12.40505
G1 X104.750 Y104.750 F7800.000
G1 X95.250 Y104.750 E12.46937 F900.000
G1 X95.250 Y95.250 E12.53368
G1 X104.750 Y95.250 E12.59800
G1 X104.750 Y104.675 E12.66181
G1 X104.317 Y104.500 F7800.000
G1 X102.759 Y97.632 F7800.000
G1 X102.368 Y97.241 E12.66891 F1200.000
G1 X101.086 Y97.241 E12.68534
G1 X102.759 Y98.914 E12.71569
G1 X102.759 Y100.196 E12.73212
G1 X99.804 Y97.241 E12.78571
G1 X98.522 Y97.241 E12.80215
G1 X102.759 Y101.478 E12.87899
G1 X102.739 Y102.739 E12.89517
G1 X97.261 Y97.261 E12.99452
G1 X97.241 Y98.522 E13.01071
G1 X101.478 Y102.759 E13.08754
G1 X100.196 Y102.759 E13.10398
G1 X97.241 Y99.804 E13.15757
G1 X97.241 Y101.086 E13.17401
G1 X98.914 Y102.759 E13.20435
G1 X97.632 Y102.759 E13.22079
G1 X97.241 Y102.368 E13.22789
G1 Z0.850 F7800.000
G1 X103.268 Y103.268 F7800.000
G1 X96.732 Y103.268 E13.30450 F900.000
G1 X96.732 Y96.732 E13.38111
G1 X103.268 Y96.732 E13.45772
G1 X103.268 Y103.193 E13.53345
G1 X104.096 Y104.096 F7800.000
G1 X95.904 Y104.096 E13.62948 F900.000
G1 X95.904 Y95.904 E13.72551
G1 X104.096 Y95.904 E13.82155
G1 X104.096 Y104.021 E13.91670
G1 X104.750 Y104.750 F7800.000
G1 X95.250 Y104.750 E13.98101 F900.000
G1 X95.250 Y95.250 E14.04533
G1 X104.750 Y95.250 E14.10964
G1 X104.750 Y104.675 E14.17345
G1 X104.317 Y104.500 F7800.000
G1 X102.368 Y102.759 F7800.000
G1 X102.759 Y102.368 E14.18055 F1200.000
G1 X102.759 Y101.086 E14.19699
G1 X101.086 Y102.759 E14.22733
G1 X99.804 Y102.759 E14.24377
G1 X102.759 Y99.804 E14.29736
G1 X102.759 Y98.522 E14.31380
G1 X98.522 Y102.759 E14.39063
G1 X97.261 Y102.739 E14.40681
G1 X102.739 Y97.261 E14.50617
G1 X101.478 Y97.241 E14.52235
G1 X97.241 Y101.478 E14.59919
G1 X97.241 Y100.196 E14.61562
G1 X100.196 Y97.241 E14.66921
G1 X98.914 Y97.241 E14.68565
G1 X97.241 Y98.914 E14.71600
G1 X97.241 Y97.632 E14.73243
G1 X97.632 Y97.241 E14.73953
G1 Z0.950 F7800.000
G1 X103.268 Y103.268 F7800.000
G1 X96.732 Y103.268 E14.81614 F900.000
G1 X96.732 Y96.732 E14.89275
G1 X103.268 Y96.732 E14.96936
G1 X103.268 Y103.193 E15.04509
G1 X104.096 Y104.096 F7800.000
G1 X95.904 Y104.096 E15.14112 F900.000
G1 X95.904 Y95.904 E15.23716
G1 X104.096 Y95.904 E15.33319
G1 X104.096 Y104.021 E15.42834
G1 X104.750 Y104.750 F7800.000
G1 X95.250 Y104.750 E15.49266 F900.000
G1 X95.250 Y95.250 E15.55697
G1 X104.750 Y95.250 E15.62129
G1 X104.750 Y104.675 E15.68509
G1 X104.317 Y104.500 F7800.000
G1 X102.759 Y97.632 F7800.000
G1 X102.368 Y97.241 E15.69219 F1200.000
G1 X101.086 Y97.241 E15.70863
G1 X102.759 Y98.914 E15.73898
G1 X102.759 Y100.196 E15.75541
G1 X99.804 Y97.241 E15.80900
G1 X98.522 Y97.241 E15.82544
G1 X102.759 Y101.478 E15.90228
G1 X102.739 Y102.739 E15.91846
G1 X97.261 Y97.261 E16.01781
G1 X97.241 Y98.522 E16.03400
G1 X101.478 Y102.759 E16.11083
G1 X100.196 Y102.759 E16.12727
G1 X97.241 Y99.804 E16.18086
G1 X97.241 Y101.086 E16.19730
G1 X98.914 Y102.759 E16.22764
G1 X97.632 Y102.759 E16.24408
G1 X97.241 Y102.368 E16.25118
G1 Z1.050 F7800.000
G1 X103.268 Y103.268 F7800.000
G1 X96.732 Y103.268 E16.32779 F900.000
G1 X96.732 Y96.732 E16.40440
G1 X103.268 Y96.732 E16.48101
G1 X103.268 Y103.193 E16.55674
G1 X104.096 Y104.096 F7800.000
G1 X95.904 Y104.096 E16.65277 F900.000
G1 X95.904 Y95.904 E16.74880
G1 X104.096 Y95.904 E16.84483
G1 X104.096 Y104.021 E16.93999
G1 X104.750 Y104.750 F7800.000
G1 X95.250 Y104.750 E17.00430 F900.000
G1 X95.250 Y95.250 E17.06862
G1 X104.750 Y95.250 E17.13293
G1 X104.750 Y104.675 E17.19674
G1 X104.317 Y104.500 F7800.000
G1 X102.368 Y102.759 F7800.000
G1 X102.759 Y102.368 E17.20384 F1200.000
G1 X102.759 Y101.086 E17.22028
G1 X101.086 Y102.759 E17.25062
G1 X99.804 Y102.759 E17.26706
G1 X102.759 Y99.804 E17.32065
G1 X102.759 Y98.522 E17.33709
G1 X98.522 Y102.759 E17.41392
G1 X97.261 Y102.739 E17.43010
G1 X102.739 Y97.261 E17.52946
G1 X101.478 Y97.241 E17.54564
G1 X97.241 Y101.478 E17.62248
G1 X97.241 Y100.196 E17.63891
G1 X100.196 Y97.241 E17.69250
G1 X98.914 Y97.241 E17.70894
G1 X97.241 Y98.914 E17.73929
G1 X97.241 Y97.632 E17.75572
G1 X97.632 Y97.241 E17.76282
G1 Z1.150 F7800.000
G1 X103.268 Y103.268 F7800.000
G1 X96.732 Y103.268 E17.83943 F900.000
G1 X96.732 Y96.732 E17.91604
G1 X103.268 Y96.732 E17.99265
G1 X103.268 Y103.193 E18.06838
G1 X104.096 Y104.096 F7800.000
G1 X95.904 Y104.096 E18.16441 F900.000
G1 X95.904 Y95.904 E18.26045
G1 X104.096 Y95.904 E18.35648
G1 X104.096 Y104.021 E18.45163
G1 X104.750 Y104.750 F7800.000
G1 X95.250 Y104.750 E18.51595 F900.000
G1 X95.250 Y95.250 E18.58026
G1 X104.750 Y95.250 E18.64458
G1 X104.750 Y104.675 E18.70838
G1 X104.317 Y104.500 F7800.000
G1 X102.759 Y97.632 F7800.000
G1 X102.368 Y97.241 E18.71548 F1200.000
G1 X101.086 Y97.241 E18.73192
G1 X102.759 Y98.914 E18.76227
G1 X102.759 Y100.196 E18.77870
G1 X99.804 Y97.241 E18.83229
G1 X98.522 Y97.241 E18.84873
G1 X102.759 Y101.478 E18.92557
G1 X102.739 Y102.739 E18.94175
G1 X97.261 Y97.261 E19.04110
G1 X97.241 Y98.522 E19.05729
G1 X101.478 Y102.759 E19.13412
G1 X100.196 Y102.759 E19.15056
G1 X97.241 Y99.804 E19.20415
G1 X97.241 Y101.086 E19.22058
G1 X98.914 Y102.759 E19.25093
G1 X97.632 Y102.759 E19.26737
G1 X97.241 Y102.368 E19.27447
G1 Z1.250 F7800.000
G1 X103.268 Y103.268 F7800.000
G1 X96.732 Y103.268 E19.35108 F900.000
G1 X96.732 Y96.732 E19.42769
G1 X103.268 Y96.732 E19.50430
G1 X103.268 Y103.193 E19.58003
G1 X104.096 Y104.096 F7800.000
G1 X95.904 Y104.096 E19.67606 F900.000
G1 X95.904 Y95.904 E19.77209
G1 X104.096 Y95.904 E19.86812
G1 X104.096 Y104.021 E19.96328
G1 X104.750 Y104.750 F7800.000
G1 X95.250 Y104.750 E20.02759 F900.000
G1 X95.250 Y95.250 E20.09191
G1 X104.750 Y95.250 E20.15622
G1 X104.750 Y104.675 E20.22003
G1 X104.317 Y104.500 F7800.000
G1 X102.368 Y102.759 F7800.000
G1 X102.759 Y102.368 E20.22713 F1200.000
G1 X102.759 Y101.086 E20.24357
G1 X101.086 Y102.759 E20.27391
G1 X99.804 Y102.759 E20.29035
G1 X102.759 Y99.804 E20.34394
G1 X102.759 Y98.522 E20.36037
G1 X98.522 Y102.759 E20.43721
G1 X97.261 Y102.739 E20.45339
G1 X102.739 Y97.261 E20.55275
G1 X101.478 Y97.241 E20.56893
G1 X97.241 Y101.478 E20.64577
G1 X97.241 Y100.196 E20.66220
G1 X100.196 Y97.241 E20.71579
G1 X98.914 Y97.241 E20.73223
G1 X97.241 Y98.914 E20.76257
G1 X97.241 Y97.632 E20.77901
G1 X97.632 Y97.241 E20.78611
G1 Z1.350 F7800.000
G1 X103.268 Y103.268 F7800.000
G1 X96.732 Y103.268 E20.86272 F900.000
G1 X96.732 Y96.732 E20.93933
G1 X103.268 Y96.732 E21.01594
G1 X103.268 Y103.193 E21.09167
G1 X104.096 Y104.096 F7800.000
G1 X95.904 Y104.096 E21.18770 F900.000
G1 X95.904 Y95.904 E21.28374
G1 X104.096 Y95.904 E21.37977
G1 X104.096 Y104.021 E21.47492
G1 X104.750 Y104.750 F7800.000
G1 X95.250 Y104.750 E21.53924 F900.000
G1 X95.250 Y95.250 E21.60355
G1 X104.750 Y95.250 E21.66787
G1 X104.750 Y104.675 E21.73167
G1 X104.317 Y104.500 F7800.000
G1 X102.759 Y97.632 F7800.000
G1 X102.368 Y97.241 E21.73877 F1200.000
G1 X101.086 Y97.241 E21.75521
G1 X102.759 Y98.914 E21.78555
G1 X102.759 Y100.196 E21.80199
G1 X99.804 Y97.241 E21.85558
G1 X98.522 Y97.241 E21.87202
G1 X102.759 Y101.478 E21.94885
G1 X102.739 Y102.739 E21.96504
G1 X97.261 Y97.261 E22.06439
G1 X97.241 Y98.522 E22.08057
G1 X101.478 Y102.759 E22.15741
G1 X100.196 Y102.759 E22.17385
G1 X97.241 Y99.804 E22.22744
G1 X97.241 Y101.086 E22.24387
G1 X98.914 Y102.759 E22.27422
G1 X97.632 Y102.759 E22.29066
G1 X97.241 Y102.368 E22.29776
G1 Z1.450 F7800.000
G1 X103.268 Y103.268 F7800.000
G1 X96.732 Y103.268 E22.37437 F900.000
G1 X96.732 Y96.732 E22.45097
G1 X103.268 Y96.732 E22.52758
G1 X103.268 Y103.193 E22.60331
G1 X104.096 Y104.096 F7800.000
G1 X95.904 Y104.096 E22.69935 F900.000
G1 X95.904 Y95.904 E22.79538
G1 X104.096 Y95.904 E22.89141
G1 X104.096 Y104.021 E22.98657
G1 X104.750 Y104.750 F7800.000
G1 X95.250 Y104.750 E23.05088 F900.000
G1 X95.250 Y95.250 E23.11520
G1 X104.750 Y95.250 E23.17951
G1 X104.750 Y104.675 E23.24332
G1 X104.317 Y104.500 F7800.000
G1 X102.368 Y102.759 F7800.000
G1 X102.759 Y102.368 E23.25042 F1200.000
G1 X102.759 Y101.086 E23.26685
G1 X101.086 Y102.759 E23.29720
G1 X99.804 Y102.759 E23.31364
G1 X102.759 Y99.804 E23.36723
G1 X102.759 Y98.522 E23.38366
G1 X98.522 Y102.759 E23.46050
G1 X97.261 Y102.739 E23.47668
G1 X102.739 Y97.261 E23.57604
G1 X101.478 Y97.241 E23.59222
G1 X97.241 Y101.478 E23.66905
G1 X97.241 Y100.196 E23.68549
G1 X100.196 Y97.241 E23.73908
G1 X98.914 Y97.241 E23.75552
G1 X97.241 Y98.914 E23.78586
G1 X97.241 Y97.632 E23.80230
G1 X97.632 Y97.241 E23.80940
G1 Z1.550 F7800.000
G1 X103.268 Y103.268 F7800.000
G1 X96.732 Y103.268 E23.88601 F900.000
G1 X96.732 Y96.732 E23.96262
G1 X103.268 Y96.732 E24.03923
G1 X103.268 Y103.193 E24.11496
G1 X104.096 Y104.096 F7800.000
G1 X95.904 Y104.096 E24.21099 F900.000
G1 X95.904 Y95.904 E24.30702
G1 X104.096 Y95.904 E24.40306
G1 X104.096 Y104.021 E24.49821
G1 X104.750 Y104.750 F7800.000
G1 X95.250 Y104.750 E24.56253 F900.000
G1 X95.250 Y95.250 E24.62684
G1 X104.750 Y95.250 E24.69116
G1 X104.750 Y104.675 E24.75496
G1 X104.317 Y104.500 F7800.000
G1 X102.759 Y97.632 F7800.000
G1 X102.368 Y97.241 E24.76206 F1200.000
G1 X101.086 Y97.241 E24.77850
G1 X102.759 Y98.914 E24.80884
G1 X102.759 Y100.196 E24.82528
G1 X99.804 Y97.241 E24.87887
G1 X98.522 Y97.241 E24.89531
G1 X102.759 Y101.478 E24.97214
G1 X102.739 Y102.739 E24.98833
G1 X97.261 Y97.261 E25.08768
G1 X97.241 Y98.522 E25.10386
G1 X101.478 Y102.759 E25.18070
G1 X100.196 Y102.759 E25.19714
G1 X97.241 Y99.804 E25.25073
G1 X97.241 Y101.086 E25.26716
G1 X98.914 Y102.759 E25.29751
G1 X97.632 Y102.759 E25.31395
G1 X97.241 Y102.368 E25.32104
G1 Z1.650 F7800.000
G1 X103.268 Y103.268 F7800.000
G1 X96.732 Y103.268 E25.39765 F900.000
G1 X96.732 Y96.732 E25.47426
G1 X103.268 Y96.732 E25.55087
G1 X103.268 Y103.193 E25.62660
G1 X104.096 Y104.096 F7800.000
G1 X95.904 Y104.096 E25.72264 F900.000
G1 X95.904 Y95.904 E25.81867
G1 X104.096 Y95.904 E25.91470
G1 X104.096 Y104.021 E26.00986
G1 X104.750 Y104.750 F7800.000
G1 X95.250 Y104.750 E26.07417 F900.000
