; generated by Slic3r 1.2.9 on 2020-01-11 at 10:24:05

; external perimeters extrusion width = 0.50mm
; perimeters extrusion width = 0.85mm
; infill extrusion width = 1.98mm
; solid infill extrusion width = 0.85mm
; top infill extrusion width = 0.85mm

M107
M104 S200 ; set temperature
G28 ; home all axes
G1 Z5 F5000 ; lift nozzle

M109 S200 ; wait for temperature to be reached
G21 ; set units to millimeters
G90 ; use absolute coordinates
M82 ; use absolute distances for extrusion
G92 E0
G1 Z0.350 F7800.000
G1 E-2.00000 F2400.00000
G92 E0
G1 X92.571 Y82.163 F7800.000
G1 E2.00000 F2400.00000
G1 X94.325 Y80.685 E2.07096 F1800.000
G1 X96.477 Y79.893 E2.14192
G1 X97.654 Y79.788 E2.17848
G1 X102.374 Y79.788 E2.32451
G1 X104.632 Y80.185 E2.39548
G1 X106.620 Y81.328 E2.46644 F1800.000
G1 X108.100 Y83.081 E2.53740
G1 X108.893 Y85.233 E2.60836
G1 X108.998 Y86.412 E2.64501
G1 X108.998 Y97.412 E2.98537
G1 X108.601 Y99.671 E3.05633
G1 X107.458 Y101.659 E3.12729
G1 X105.705 Y103.139 E3.19826
G1 X103.557 Y103.931 E3.26911
G1 X103.274 Y103.982 E3.27799
G1 X102.130 Y104.140 E3.31374
G1 X101.677 Y104.185 E3.32781
G1 X100.649 Y104.249 E3.35968
G1 X99.600 Y104.254 E3.39216
G1 X98.020 Y104.158 E3.44111
G1 X97.049 Y104.032 E3.47142
G1 X96.373 Y103.913 E3.49265
G1 X94.233 Y103.089 E3.56361
G1 X92.502 Y101.584 E3.63457
G1 X91.388 Y99.580 E3.70554
G1 X91.024 Y97.409 E3.77363
G1 X91.029 Y86.409 E4.11399
G1 X91.427 Y84.151 E4.18495
G1 X92.534 Y82.228 E4.25359
G1 E2.25359 F2400.00000
G92 E0
G1 X100.774 Y96.002 F7800.000
G1 E2.00000 F2400.00000
G1 X100.350 Y96.029 E2.01313 F1800.000
G1 X99.651 Y96.029 E2.03476
G1 X99.249 Y96.003 E2.04723
G1 X99.253 Y88.012 E2.29448
G1 X100.774 Y88.012 E2.34154
G1 X100.774 Y95.927 E2.58642
G1 X101.399 Y96.567 F7800.000
G1 X101.143 Y96.604 E2.59442 F1800.000
G1 X100.370 Y96.654 E2.61836
G1 X99.631 Y96.654 E2.64124
G1 X98.624 Y96.574 E2.67250
G1 X98.628 Y87.387 E2.95674
G1 X101.399 Y87.387 E3.04246
G1 X101.399 Y96.492 E3.32418
G1 X102.024 Y97.109 F7800.000
G1 X101.207 Y97.226 E3.34970 F1800.000
G1 X100.391 Y97.279 E3.37502
G1 X99.611 Y97.279 E3.39914
G1 X98.792 Y97.226 E3.42453
G1 X97.999 Y97.122 E3.44929
G1 X98.004 Y86.762 E3.76983
G1 X102.024 Y86.762 E3.89422
G1 X102.024 Y97.034 E4.21203
G1 X101.569 Y96.901 F7800.000
G1 X100.011 Y95.717 F7800.000
G1 X100.013 Y88.325 E4.69695 F1800.000
G1 Z0.450 F7800.000
G1 X101.834 Y96.034 F7800.000
G1 X101.045 Y96.136 E4.70627 F900.000
G1 X100.322 Y96.181 E4.71477
G1 X99.683 Y96.181 E4.72226
G1 X98.893 Y96.129 E4.73153
G1 X98.153 Y96.029 E4.74029
G1 X98.153 Y88.145 E4.83271
G1 X101.829 Y88.145 E4.87579
G1 X101.834 Y95.959 E4.96738
G1 X102.624 Y96.720 F7800.000
G1 X101.908 Y96.860 E4.97593 F900.000
G1 X101.125 Y96.961 E4.98519
G1 X100.348 Y97.010 E4.99431
G1 X99.655 Y97.010 E5.00243
G1 X98.810 Y96.953 E5.01236
G1 X98.043 Y96.850 E5.02143
G1 X97.404 Y96.725 E5.02907
G1 X97.324 Y96.709 E5.03131 F900.000
G1 X97.324 Y87.316 E5.29223
G1 X97.404 Y87.316 E5.29444
G1 X102.624 Y87.316 E5.35562 F900.000
G1 X102.657 Y87.316 E5.35655 F900.000
G1 X102.663 Y96.677 E5.61658
G1 X103.317 Y97.219 F7800.000
G1 X102.624 Y97.386 E5.63639 F900.000
G1 X102.013 Y97.505 E5.64060 F900.000
G1 X101.187 Y97.612 E5.64624
G1 X100.368 Y97.663 E5.65179
G1 X99.634 Y97.663 E5.65677
G1 X98.745 Y97.604 E5.66280
G1 X97.936 Y97.495 E5.66832
G1 X97.400 Y97.390 E5.67202
G1 X96.671 Y97.218 E5.69282 F900.000
G1 X96.671 Y86.662 E5.98604
G1 X97.404 Y86.662 E6.00640
G1 X102.624 Y86.662 E6.04173 F900.000
G1 X103.310 Y86.662 E6.06080 F900.000
G1 X103.317 Y97.144 E6.35196
G1 E4.35196 F2400.00000
G92 E0
G1 X100.931 Y95.614 F7800.000
G1 E2.00000 F2400.00000
G1 X101.325 Y95.219 E2.00705 F1200.000
G1 X101.324 Y93.957 E2.02299
G1 X99.609 Y95.673 E2.05363
G1 X98.661 Y95.358 E2.06624
G1 X101.324 Y92.696 E2.11379
G1 X101.323 Y91.434 E2.12973
G1 X98.661 Y94.095 E2.17727
G1 X98.661 Y92.832 E2.19322
G1 X101.322 Y90.172 E2.24074
G1 X101.321 Y88.910 E2.25667
G1 X98.661 Y91.570 E2.30418
G1 X98.661 Y90.307 E2.32013
G1 X100.316 Y88.653 E2.34967
G1 X99.053 Y88.653 E2.36562
G1 X98.661 Y89.045 E2.37261
G1 Z0.550 F7800.000
G1 X102.264 Y96.071 F7800.000
G1 X101.759 Y96.169 E2.37864 F900.000
G1 X101.032 Y96.263 E2.38723
G1 X100.311 Y96.308 E2.39570
G1 X99.690 Y96.308 E2.40297
G1 X98.969 Y96.263 E2.41145
G1 X98.243 Y96.169 E2.42003
G1 X97.752 Y96.073 E2.42589
G1 X97.755 Y88.145 E2.51883
G1 X102.264 Y88.145 E2.57167
G1 X102.264 Y95.996 E2.66370
G1 X103.092 Y96.721 F7800.000
G1 X102.677 Y96.834 E2.66874 F900.000
G1 X101.891 Y96.988 E2.67812
G1 X101.111 Y97.088 E2.68734
G1 X100.337 Y97.136 E2.69644
G1 X99.665 Y97.136 E2.70432
G1 X98.890 Y97.088 E2.71341
G1 X98.110 Y96.988 E2.72263
G1 X97.326 Y96.834 E2.73200
G1 X96.923 Y96.724 E2.73689
G1 X96.927 Y87.316 E2.84716
G1 X103.092 Y87.316 E2.91943
G1 X103.092 Y96.646 E3.02880
G1 X103.746 Y97.221 F7800.000
G1 X102.826 Y97.471 E3.03525 F900.000
G1 X101.996 Y97.633 E3.04097
G1 X101.173 Y97.739 E3.04659
G1 X100.357 Y97.790 E3.05212
G1 X99.644 Y97.790 E3.05695
G1 X98.828 Y97.739 E3.06249
G1 X98.005 Y97.633 E3.06810
G1 X97.176 Y97.471 E3.07382
G1 X96.270 Y97.222 E3.08019
G1 X96.274 Y86.662 E3.15167
G1 X103.746 Y86.662 E3.20226
G1 X103.746 Y97.146 E3.27323
G1 X103.275 Y97.051 F7800.000
G1 E1.27323 F2400.00000
G92 E0
G1 X98.261 Y95.291 F7800.000
G1 E2.00000 F2400.00000
G1 X98.656 Y95.686 E2.00680 F1200.000
G1 X99.987 Y95.799 E2.02307
G1 X98.261 Y94.074 E2.05280
G1 X98.262 Y92.857 E2.06762
G1 X101.160 Y95.755 E2.11755
G1 X101.755 Y95.133 E2.12803
G1 X98.262 Y91.640 E2.18820
G1 X98.263 Y90.422 E2.20303
G1 X101.755 Y93.915 E2.26318
G1 X101.755 Y92.697 E2.27801
G1 X98.263 Y89.205 E2.33816
G1 X98.928 Y88.653 E2.34870
G1 X101.755 Y91.480 E2.39739
G1 X101.755 Y90.262 E2.41222
G1 X100.146 Y88.653 E2.43993
G1 X101.364 Y88.653 E2.45476
G1 X101.755 Y89.045 E2.46151
M106 S242.25
G1 Z0.650 F7800.000
G1 X102.626 Y96.125 F7800.000
G1 X101.830 Y96.281 E2.47102 F900.000
G1 X101.014 Y96.390 E2.48066
G1 X100.300 Y96.434 E2.48905
G1 X99.701 Y96.434 E2.49607
G1 X98.982 Y96.390 E2.50451
G1 X98.259 Y96.297 E2.51306
G1 X97.361 Y96.122 E2.52378
G1 X97.361 Y88.145 E2.61729
G1 X102.622 Y88.145 E2.67896
G1 X102.626 Y96.050 E2.77162
G1 X103.454 Y96.755 F7800.000
G1 X102.662 Y96.962 E2.78122 F900.000
G1 X101.965 Y97.099 E2.78955
G1 X101.095 Y97.216 E2.79983
G1 X100.326 Y97.263 E2.80887
G1 X99.676 Y97.263 E2.81648
G1 X98.904 Y97.215 E2.82555
G1 X98.127 Y97.115 E2.83473
G1 X97.339 Y96.962 E2.84414
G1 X96.532 Y96.752 E2.85391
G1 X96.532 Y87.316 E2.96451
G1 X103.450 Y87.316 E3.04560
G1 X103.454 Y96.680 E3.15536
G1 X104.108 Y97.231 F7800.000
G1 X103.645 Y97.381 E3.15866 F900.000
G1 X102.807 Y97.599 E3.16452
G1 X102.071 Y97.744 E3.16960
G1 X101.159 Y97.866 E3.17583
G1 X100.346 Y97.917 E3.18135
G1 X99.656 Y97.917 E3.18602
G1 X98.842 Y97.866 E3.19154
G1 X98.022 Y97.761 E3.19713
G1 X97.194 Y97.599 E3.20284
G1 X96.355 Y97.381 E3.20871
G1 X95.879 Y97.230 E3.21210
G1 X95.879 Y86.662 E3.28364
G1 X104.103 Y86.662 E3.33932
G1 X104.108 Y97.156 E3.41036
G1 X103.645 Y97.080 F7800.000
G1 E1.41036 F2400.00000
G92 E0
G1 X101.720 Y95.746 F7800.000
G1 E2.00000 F2400.00000
G1 X102.117 Y95.350 E2.00658 F1200.000
G1 X102.116 Y94.178 E2.02033
G1 X100.385 Y95.909 E2.04904
G1 X99.216 Y95.906 E2.06276
G1 X102.116 Y93.006 E2.11086
G1 X102.115 Y91.834 E2.12461
G1 X98.158 Y95.790 E2.19024
G1 X97.869 Y94.907 E2.20115
G1 X102.115 Y90.662 E2.27157
G1 X102.114 Y89.490 E2.28531
G1 X97.869 Y93.735 E2.35573
G1 X97.869 Y92.562 E2.36948
G1 X101.778 Y88.653 E2.43432
G1 X100.606 Y88.653 E2.44807
G1 X97.869 Y91.390 E2.49346
G1 X97.869 Y90.217 E2.50722
G1 X99.433 Y88.653 E2.53316
G1 X98.261 Y88.653 E2.54691
G1 X97.869 Y89.045 E2.55341
M106 S239.7
G1 Z0.750 F7800.000
G1 X102.979 Y96.147 F7800.000
G1 X102.459 Y96.282 E2.55971 F900.000
G1 X101.724 Y96.426 E2.56849
G1 X101.128 Y96.504 E2.57553
G1 X100.283 Y96.561 E2.58545
G1 X99.712 Y96.561 E2.59215
G1 X98.995 Y96.517 E2.60056
G1 X98.275 Y96.425 E2.60907
G1 X97.543 Y96.282 E2.61782
G1 X97.029 Y96.149 E2.62404
G1 X97.035 Y88.145 E2.71786
G1 X102.979 Y88.145 E2.78753
G1 X102.979 Y96.072 E2.88045
G1 X103.808 Y96.761 F7800.000
G1 X103.436 Y96.884 E2.88503 F900.000
G1 X102.642 Y97.091 E2.89465
G1 X101.857 Y97.244 E2.90403
G1 X101.210 Y97.329 E2.91168
G1 X100.311 Y97.390 E2.92224
G1 X99.687 Y97.390 E2.92956
G1 X98.917 Y97.343 E2.93859
G1 X98.143 Y97.243 E2.94774
G1 X97.359 Y97.091 E2.95711
G1 X96.566 Y96.884 E2.96671
G1 X96.200 Y96.762 E2.97123
G1 X96.207 Y87.316 E3.08195
G1 X103.808 Y87.316 E3.17104
G1 X103.808 Y96.686 E3.28086
G1 X104.461 Y97.232 F7800.000
G1 X103.622 Y97.511 E3.28685 F900.000
G1 X102.787 Y97.728 E3.29269
G1 X101.962 Y97.889 E3.29838
G1 X101.275 Y97.979 E3.30308
G1 X100.334 Y98.043 E3.30946
G1 X99.667 Y98.043 E3.31397
G1 X98.856 Y97.994 E3.31947
G1 X98.039 Y97.889 E3.32505
G1 X97.214 Y97.728 E3.33074
G1 X96.380 Y97.511 E3.33658
G1 X95.547 Y97.232 E3.34252
G1 X95.554 Y86.662 E3.41408
G1 X104.461 Y86.662 E3.47438
G1 X104.461 Y97.157 E3.54543
G1 X103.985 Y97.080 F7800.000
G1 E1.54543 F2400.00000
G92 E0
G1 X97.935 Y95.803 F7800.000
G1 E2.00000 F2400.00000
G1 X97.538 Y95.406 E2.00704 F1200.000
G1 X97.539 Y94.152 E2.02279
G1 X99.409 Y96.022 E2.05598
G1 X100.678 Y96.036 E2.07191
G1 X97.540 Y92.898 E2.12762
G1 X97.541 Y91.644 E2.14336
G1 X101.817 Y95.920 E2.21927
G1 X102.470 Y95.319 E2.23042
G1 X97.542 Y90.390 E2.31792
G1 X97.542 Y89.136 E2.33367
G1 X102.470 Y94.064 E2.42115
G1 X102.470 Y92.809 E2.43691
G1 X98.314 Y88.653 E2.51069
G1 X99.569 Y88.653 E2.52645
G1 X102.470 Y91.554 E2.57795
G1 X102.470 Y90.299 E2.59371
G1 X100.824 Y88.653 E2.62293
G1 X102.079 Y88.653 E2.63869
G1 X102.470 Y89.045 E2.64564
G1 Z0.850 F7800.000
G1 X103.286 Y96.191 F7800.000
G1 X102.439 Y96.411 E2.65589 F900.000
G1 X101.707 Y96.554 E2.66464
G1 X101.133 Y96.629 E2.67141
G1 X100.272 Y96.688 E2.68154
G1 X99.723 Y96.688 E2.68797
G1 X99.015 Y96.645 E2.69628
G1 X98.167 Y96.530 E2.70632
G1 X97.564 Y96.411 E2.71352
G1 X96.711 Y96.189 E2.72385
G1 X96.711 Y88.145 E2.81814
G1 X103.286 Y88.145 E2.89521
G1 X103.286 Y96.116 E2.98864
G1 X104.114 Y96.786 F7800.000
G1 X103.417 Y97.013 E2.99723 F900.000
G1 X102.623 Y97.219 E3.00685
G1 X101.840 Y97.372 E3.01620
G1 X101.216 Y97.454 E3.02358
G1 X100.300 Y97.516 E3.03434
G1 X99.698 Y97.516 E3.04139
G1 X98.935 Y97.470 E3.05035
G1 X98.031 Y97.347 E3.06104
G1 X97.379 Y97.220 E3.06883
G1 X96.585 Y97.013 E3.07845
G1 X95.882 Y96.784 E3.08711
G1 X95.882 Y87.316 E3.19809
G1 X104.114 Y87.316 E3.29458
G1 X104.114 Y96.711 E3.40470
G1 X104.768 Y97.241 F7800.000
G1 X104.444 Y97.366 E3.40705 F900.000
G1 X103.600 Y97.640 E3.41305
G1 X102.768 Y97.857 E3.41888
G1 X101.945 Y98.017 E3.42455
G1 X101.280 Y98.104 E3.42909
G1 X100.322 Y98.170 E3.43559
G1 X99.678 Y98.170 E3.43995
G1 X98.871 Y98.121 E3.44543
G1 X97.924 Y97.992 E3.45189
G1 X97.234 Y97.857 E3.45666
G1 X96.401 Y97.640 E3.46248
G1 X95.557 Y97.366 E3.46849
G1 X95.229 Y97.240 E3.47087
G1 X95.229 Y86.662 E3.54248
G1 X104.768 Y86.662 E3.60706
G1 X104.768 Y97.166 E3.67817
G1 X104.434 Y97.146 F7800.000
G1 E1.67817 F2400.00000
G92 E0
G1 X102.378 Y95.850 F7800.000
G1 E2.00000 F2400.00000
G1 X102.777 Y95.450 E2.00676 F1200.000
G1 X102.777 Y94.254 E2.02108
G1 X100.911 Y96.121 E2.05267
G1 X99.656 Y96.179 E2.06770
G1 X102.777 Y93.058 E2.12053
G1 X102.777 Y91.861 E2.13484
G1 X98.548 Y96.091 E2.20642
G1 X97.526 Y95.916 E2.21883
G1 X102.777 Y90.665 E2.30770
G1 X102.777 Y89.469 E2.32202
G1 X97.219 Y95.026 E2.41608
G1 X97.219 Y93.830 E2.43039
G1 X102.396 Y88.653 E2.51801
G1 X101.200 Y88.653 E2.53233
G1 X97.219 Y92.634 E2.59970
G1 X97.219 Y91.437 E2.61402
G1 X100.004 Y88.653 E2.66114
G1 X98.807 Y88.653 E2.67546
G1 X97.219 Y90.241 E2.70233
G1 X97.219 Y89.045 E2.71665
G1 X97.611 Y88.653 E2.72327
M106 S242.25
G1 Z0.950 F7800.000
G1 X103.593 Y96.206 F7800.000
G1 X103.161 Y96.347 E2.72859 F900.000
G1 X102.419 Y96.540 E2.73758
G1 X101.693 Y96.681 E2.74625
G1 X100.980 Y96.772 E2.75468
G1 X100.268 Y96.814 E2.76304
G1 X99.741 Y96.814 E2.76921
G1 X98.862 Y96.754 E2.77953
G1 X98.311 Y96.682 E2.78605
G1 X97.582 Y96.540 E2.79476
G1 X96.840 Y96.347 E2.80374
G1 X96.408 Y96.206 E2.80907
G1 X96.414 Y88.145 E2.90356
G1 X103.584 Y88.145 E2.98761
G1 X103.593 Y96.131 E3.08123
G1 X104.422 Y96.794 F7800.000
G1 X103.394 Y97.142 E3.09395 F900.000
G1 X102.603 Y97.348 E3.10353
G1 X101.825 Y97.499 E3.11282
G1 X101.057 Y97.597 E3.12190
G1 X100.292 Y97.643 E3.13087
G1 X99.713 Y97.643 E3.13766
G1 X98.780 Y97.579 E3.14862
G1 X98.178 Y97.500 E3.15574
G1 X97.398 Y97.348 E3.16505
G1 X96.607 Y97.142 E3.17463
G1 X95.579 Y96.794 E3.18736
G1 X95.586 Y87.316 E3.29845
G1 X104.412 Y87.316 E3.40191
G1 X104.422 Y96.719 E3.51213
G1 X105.076 Y97.241 F7800.000
G1 X104.418 Y97.496 E3.51690 F1800.000
G1 X103.577 Y97.770 E3.52289
G1 X102.748 Y97.986 E3.52869
G1 X101.929 Y98.145 E3.53434
G1 X101.117 Y98.248 E3.53988
G1 X100.312 Y98.296 E3.54534
G1 X99.691 Y98.296 E3.54955
G1 X98.715 Y98.229 E3.55616
G1 X98.073 Y98.145 E3.56055
G1 X97.253 Y97.986 E3.56620
G1 X96.424 Y97.770 E3.57201
G1 X95.583 Y97.496 E3.57799
G1 X94.926 Y97.241 E3.58277
G1 X94.932 Y86.662 E3.65438
G1 X105.065 Y86.662 E3.72298
G1 X105.076 Y97.166 E3.79409
G1 X104.595 Y97.105 F7800.000
G1 E1.79409 F2400.00000
G92 E0
G1 X96.917 Y95.494 F7800.000
G1 E2.00000 F2400.00000
G1 X97.317 Y95.894 E2.00713 F1200.000
G1 X98.906 Y96.222 E2.02760
G1 X96.918 Y94.234 E2.06306
G1 X96.919 Y92.974 E2.07896
G1 X100.250 Y96.306 E2.13839
G1 X101.429 Y96.223 E2.15329
G1 X96.920 Y91.714 E2.23372
G1 X96.920 Y90.454 E2.24962
G1 X102.500 Y96.033 E2.34915
G1 X103.083 Y95.356 E2.36042
G1 X96.921 Y89.194 E2.47034
G1 X97.642 Y88.653 E2.48170
G1 X103.082 Y94.093 E2.57875
G1 X103.081 Y92.831 E2.59467
G1 X98.902 Y88.653 E2.66920
G1 X100.163 Y88.653 E2.68510
G1 X103.079 Y91.569 E2.73712
G1 X103.078 Y90.307 E2.75304
G1 X101.424 Y88.653 E2.78254
G1 X102.685 Y88.653 E2.79844
G1 X103.077 Y89.045 E2.80543
M106 S239.7
G1 Z1.050 F7800.000
G1 X103.873 Y96.237 F7800.000
G1 X103.138 Y96.476 E2.81448 F900.000
G1 X102.400 Y96.669 E2.82342
G1 X101.673 Y96.810 E2.83210
G1 X101.144 Y96.879 E2.83835
G1 X100.248 Y96.941 E2.84888
G1 X99.744 Y96.941 E2.85479
G1 X99.035 Y96.899 E2.86312
G1 X98.324 Y96.809 E2.87151
G1 X97.601 Y96.669 E2.88014
G1 X96.863 Y96.476 E2.88909
G1 X96.139 Y96.241 E2.89801
G1 X96.141 Y88.145 E2.99291
G1 X103.873 Y88.145 E3.08354
G1 X103.873 Y96.162 E3.17752
G1 X104.701 Y96.800 F7800.000
G1 X104.170 Y97.012 E3.18423 F900.000
G1 X103.371 Y97.272 E3.19407
G1 X102.584 Y97.477 E3.20361
G1 X101.806 Y97.628 E3.21289
G1 X101.227 Y97.704 E3.21974
G1 X100.277 Y97.769 E3.23090
G1 X99.720 Y97.769 E3.23743
G1 X98.958 Y97.724 E3.24637
G1 X98.193 Y97.627 E3.25541
G1 X97.418 Y97.477 E3.26467
G1 X96.630 Y97.272 E3.27421
G1 X95.833 Y97.012 E3.28404
G1 X95.310 Y96.802 E3.29064
G1 X95.312 Y87.316 E3.40183
G1 X104.701 Y87.316 E3.51188
G1 X104.701 Y96.725 E3.62217
G1 X105.355 Y97.243 F7800.000
G1 X104.392 Y97.627 E3.62919 F1800.000
G1 X103.555 Y97.899 E3.63515
G1 X102.728 Y98.115 E3.64093
G1 X101.911 Y98.273 E3.64656
G1 X101.292 Y98.354 E3.65079
G1 X100.299 Y98.423 E3.65753
G1 X99.701 Y98.423 E3.66158
G1 X98.898 Y98.376 E3.66702
G1 X98.090 Y98.273 E3.67254
G1 X97.273 Y98.115 E3.67817
G1 X96.446 Y97.899 E3.68395
G1 X95.610 Y97.627 E3.68991
G1 X94.657 Y97.244 E3.69687
G1 X94.659 Y86.662 E3.76850
G1 X105.355 Y86.662 E3.84091
G1 X105.355 Y97.168 E3.91203
G1 X104.873 Y97.109 F7800.000
G1 E1.91203 F2400.00000
G92 E0
G1 X102.962 Y95.933 F7800.000
G1 E2.00000 F2400.00000
G1 X103.364 Y95.530 E2.00684 F1200.000
G1 X103.364 Y94.330 E2.02124
G1 X101.384 Y96.310 E2.05486
G1 X100.063 Y96.431 E2.07079
G1 X103.364 Y93.130 E2.12683
G1 X103.364 Y91.930 E2.14124
G1 X98.904 Y96.391 E2.21697
G1 X97.862 Y96.232 E2.22962
G1 X103.364 Y90.730 E2.32303
G1 X103.364 Y89.530 E2.33743
G1 X96.895 Y95.999 E2.44726
G1 X96.648 Y95.046 E2.45908
G1 X103.041 Y88.653 E2.56762
G1 X101.841 Y88.653 E2.58202
G1 X96.648 Y93.846 E2.67019
G1 X96.648 Y92.646 E2.68460
G1 X100.641 Y88.653 E2.75238
G1 X99.441 Y88.653 E2.76678
G1 X96.649 Y91.445 E2.81419
G1 X96.649 Y90.245 E2.82860
G1 X98.241 Y88.653 E2.85562
G1 X97.041 Y88.653 E2.87003
G1 X96.649 Y89.045 E2.87668
